icons/svg/shopping-music.svg

﻿<?xml version="1.0" encoding="utf-8"?>
<!DOCTYPE svg PUBLIC "-//W3C//DTD SVG 1.1//EN" "http://www.w3.org/Graphics/SVG/1.1/DTD/svg11.dtd">
<svg xmlns="http://www.w3.org/2000/svg" xmlns:xlink="http://www.w3.org/1999/xlink" version="1.1" baseProfile="full" width="24" height="24" viewBox="0 0 24.00 24.00" enable-background="new 0 0 24.00 24.00" xml:space="preserve">
	<path fill="#000000" fill-opacity="1" stroke-width="0.2" stroke-linejoin="round" d="M 11.9994,2.99807C 10.3424,2.99807 8.99939,4.34106 8.99939,5.99807L 14.9994,5.99807C 14.9994,4.34106 13.6564,2.99807 11.9994,2.99807 Z M 18.9993,5.99809C 20.1033,5.99809 20.9993,6.89309 20.9993,7.99809L 20.9993,19.9981C 20.9993,21.1031 20.1033,21.9981 18.9993,21.9981L 4.99935,21.9981C 3.89433,21.9981 2.99935,21.1031 2.99935,19.9981L 3.00936,7.99809C 3.00936,6.89309 3.89433,5.99809 4.99935,5.99809L 6.99935,5.99809C 6.99935,3.23708 9.23836,0.998093 11.9993,0.998093C 14.7603,0.998093 16.9993,3.23708 16.9993,5.99809L 18.9993,5.99809 Z M 9,19L 16.5,14L 9,10L 9,19 Z "/>
</svg>

<svg xmlns="http://www.w3.org/2000/svg" version="1.1" baseProfile="full" width="24" height="24" viewBox="0 0 24.00 24.00" xml:space="preserve"><path fill="#000" fill-opacity="1" stroke-width=".2" stroke-linejoin="round" d="M12 2.998c-1.658 0-3 1.343-3 3h6c0-1.657-1.344-3-3-3zm7 3c1.103 0 2 .895 2 2v12c0 1.105-.897 2-2 2H5c-1.106 0-2-.895-2-2l.01-12c0-1.105.884-2 1.99-2h2c0-2.76 2.238-5 5-5 2.76 0 5 2.24 5 5h2zM9 19l7.5-5L9 10v9z"/></svg>
